lib/healthicons/icons/solid/symbols/cardiogram.svg

<svg fill="none" height="48" viewBox="0 0 48 48" width="48" xmlns="http://www.w3.org/2000/svg"><path clip-rule="evenodd" d="m20 4c-1.6569 0-3 1.34315-3 3h-4c-1.6569 0-3 1.34315-3 3v10.9886h7.6326l3.3881-6.0232 2.117 7.4096 2.5907-3.3308h5.4891c.5523 0 1 .4477 1 1s-.4477 1-1 1h-4.5109l-4.4094 5.6691-1.8829-6.5903-1.612 2.8656h-8.8023v18.0114c0 1.6569 1.3431 3 3 3h22c1.6569 0 3-1.3431 3-3v-31c0-1.65685-1.3431-3-3-3h-4c0-1.65685-1.3431-3-3-3zm-1 3c0-.55228.4477-1 1-1h8c.5523 0 1 .44772 1 1v2c0 .55228-.4477 1-1 1h-8c-.5523 0-1-.44772-1-1zm-3 24c0-.5523.4477-1 1-1h14c.5523 0 1 .4477 1 1s-.4477 1-1 1h-14c-.5523 0-1-.4477-1-1zm1 5c-.5523 0-1 .4477-1 1s.4477 1 1 1h6c.5523 0 1-.4477 1-1s-.4477-1-1-1z" fill="#333" fill-rule="evenodd"/></svg>

<svg width="48" height="48" viewBox="0 0 48 48" fill="none" xmlns="http://www.w3.org/2000/svg">
<path fill-rule="evenodd" clip-rule="evenodd" d="M20 4C18.3431 4 17 5.34315 17 7H13C11.3431 7 10 8.34315 10 10V20.9886H17.6326L21.0207 14.9654L23.1377 22.375L25.7284 19.0442H31.2175C31.7698 19.0442 32.2175 19.4919 32.2175 20.0442C32.2175 20.5965 31.7698 21.0442 31.2175 21.0442H26.7066L22.2972 26.7133L20.4143 20.123L18.8023 22.9886H10V41C10 42.6569 11.3431 44 13 44H35C36.6569 44 38 42.6569 38 41V10C38 8.34315 36.6569 7 35 7H31C31 5.34315 29.6569 4 28 4H20ZM19 7C19 6.44772 19.4477 6 20 6H28C28.5523 6 29 6.44772 29 7V9C29 9.55228 28.5523 10 28 10H20C19.4477 10 19 9.55228 19 9V7ZM16 31C16 30.4477 16.4477 30 17 30H31C31.5523 30 32 30.4477 32 31C32 31.5523 31.5523 32 31 32H17C16.4477 32 16 31.5523 16 31ZM17 36C16.4477 36 16 36.4477 16 37C16 37.5523 16.4477 38 17 38H23C23.5523 38 24 37.5523 24 37C24 36.4477 23.5523 36 23 36H17Z" fill="#333333"/>
</svg>
